X:14
T:An old man whould be wooing. WCF.014
M:6/8
L:1/8
Q:3/8=110
S:Wm Clarke MS, Feltwell, 1858
O:England
A:Norfolk
N:Bottom of page
Z:transcription by Lyn Law 04/2006
K:Eb
“_Key C in MS”B|e2d e2f|(g3e2)e|f2f e2d|ec’b agf|!
e2d e2f|(g3e2)e|f2f e2d|e3-e||!
g|f2e d2c|d2e f2g|f2e d2c|B3-B2B|!
(e3/2f/2)e d2c|{d}c3z2c|(Af)f (gf)e|e3d2B|!
e2e ede|f2g a2f|fee dcd|e3e2|]

